X:266
T: KAISER WILHELM NUN DER ZWEITE
N: F0465
O: Europa, Mitteleuropa, Deutschland
R: Vaterlands -, Heimat - Lied
M: 3/4
L: 1/16
K: F
A3G | G4F4F3G | F4E4
G3A | B6G2A2c2 | G4z4
A3G | G4F4d3c | c4=B4
c2d2 | e2c2d6c2 | c4z8 |
G3GG2G2A2F2 | A4G4
d3c | B6G2A2F2 | G4z4
c3c | c6d2e2f2 | f4d4
c2B2 | A2A2B4G4 | c8
f3c | d2B2A4G4 | F8

@@@ Tune index: 5697
